img/message_icon.svg

<svg width="18" height="19" viewBox="0 0 18 19" fill="none" xmlns="http://www.w3.org/2000/svg">
<path d="M9 18.6191C13.9043 18.6191 17.9648 14.5498 17.9648 9.6543C17.9648 4.75 13.8955 0.689453 8.99121 0.689453C4.0957 0.689453 0.0351562 4.75 0.0351562 9.6543C0.0351562 14.5498 4.10449 18.6191 9 18.6191ZM8.91211 6.44629C8.25293 6.44629 7.72559 5.91895 7.72559 5.25098C7.72559 4.58301 8.25293 4.05566 8.91211 4.05566C9.57129 4.05566 10.0898 4.58301 10.0898 5.25098C10.0898 5.91895 9.57129 6.44629 8.91211 6.44629ZM7.40918 14.6553C7.03125 14.6553 6.74121 14.3828 6.74121 14.0049C6.74121 13.6533 7.03125 13.3633 7.40918 13.3633H8.52539V9.23242H7.55859C7.18945 9.23242 6.89941 8.95996 6.89941 8.58203C6.89941 8.23047 7.18945 7.94043 7.55859 7.94043H9.26367C9.72949 7.94043 9.97559 8.27441 9.97559 8.7666V13.3633H11.0918C11.4697 13.3633 11.7598 13.6533 11.7598 14.0049C11.7598 14.3828 11.4697 14.6553 11.0918 14.6553H7.40918Z" fill="#AAB8C6"/>
</svg>

<svg width="18" height="19" fill="none" xmlns="http://www.w3.org/2000/svg"><path d="M9 18.62c4.904 0 8.965-4.07 8.965-8.966C17.965 4.75 13.895.69 8.99.69 4.096.69.035 4.75.035 9.654c0 4.896 4.07 8.965 8.965 8.965zM8.912 6.445c-.66 0-1.186-.527-1.186-1.195s.527-1.195 1.186-1.195c.66 0 1.178.527 1.178 1.195S9.57 6.446 8.912 6.446zm-1.503 8.21c-.378 0-.668-.273-.668-.651 0-.352.29-.642.668-.642h1.116v-4.13H7.56a.64.64 0 0 1-.66-.651.65.65 0 0 1 .66-.642h1.705c.465 0 .712.334.712.827v4.596h1.116c.378 0 .668.29.668.642 0 .378-.29.65-.668.65H7.409z" fill="#AAB8C6"/></svg>
